svgs/emoji/flags/Bahrain.svg

<svg id="emoji" viewBox="0 0 72 72" xmlns="http://www.w3.org/2000/svg">
  <g id="color">
    <rect x="5" y="17" width="62" height="38" fill="#d22f27"/>
    <path fill="#fff" d="m21 18-16-1v38l16-1 9.067-3.6-9.067-3.6 9.067-3.6-9.067-3.6 8.933-3.6-8.933-3.6 8.933-3.6-8.933-3.6 8.933-3.6z"/>
  </g>
  <g id="line">
    <rect x="5" y="17" width="62" height="38" fill="none" stroke="#000" stroke-linecap="round" stroke-linejoin="round" stroke-width="2"/>
  </g>
</svg>

<?xml version="1.0" encoding="UTF-8" standalone="no"?>
<svg
   id="emoji"
   viewBox="0 0 72 72"
   version="1.1"
   sodipodi:docname="Bahrain.svg"
   inkscape:version="1.2 (dc2aeda, 2022-05-15)"
   xmlns:inkscape="http://www.inkscape.org/namespaces/inkscape"
   xmlns:sodipodi="http://sodipodi.sourceforge.net/DTD/sodipodi-0.dtd"
   xmlns="http://www.w3.org/2000/svg"
   xmlns:svg="http://www.w3.org/2000/svg">
  <defs
     id="defs75226" />
  <sodipodi:namedview
     id="namedview75224"
     pagecolor="#ffffff"
     bordercolor="#000000"
     borderopacity="0.25"
     inkscape:showpageshadow="2"
     inkscape:pageopacity="0.0"
     inkscape:pagecheckerboard="0"
     inkscape:deskcolor="#d1d1d1"
     showgrid="false"
     inkscape:zoom="3.2777778"
     inkscape:cx="-13.271186"
     inkscape:cy="36"
     inkscape:window-width="1309"
     inkscape:window-height="456"
     inkscape:window-x="0"
     inkscape:window-y="25"
     inkscape:window-maximized="0"
     inkscape:current-layer="emoji" />
  <path
     id="rect75215"
     style="fill:#d22f27"
     d="M 5,17 H 67 V 55 H 5 Z" />
  <path
     fill="#ffffff"
     d="M 21,18 5,17 V 55 L 21,54 30.067,50.4 21,46.8 30.067,43.2 21,39.6 29.933,36 21,32.4 29.933,28.8 21,25.2 29.933,21.6 Z"
     id="path75217" />
  <path
     id="rect75220"
     style="fill:none;stroke:#000000;stroke-width:2;stroke-linecap:round;stroke-linejoin:round"
     d="M 5,17 H 67 V 55 H 5 Z" />
</svg>
